src/assets/outline/Python.svg

<svg width="24" height="24" viewBox="0 0 24 24"  xmlns="http://www.w3.org/2000/svg">
<path d="M12 22.7495C10.95 22.7495 9.90002 22.6695 8.86002 22.5095C7.67002 22.3295 6.81002 21.3195 6.80002 20.1195V14.2195C6.80002 12.5795 8.13002 11.2495 9.77002 11.2495H14.21C15.02 11.2495 15.68 10.5895 15.68 9.77952V3.88954C15.68 3.42954 15.35 3.04953 14.89 2.97953C12.96 2.67953 11.01 2.67953 9.08002 2.97953C8.63002 3.04953 8.29004 3.43952 8.29004 3.89952V7.56953C8.29004 7.97953 7.95004 8.31953 7.54004 8.31953C7.13004 8.31953 6.79004 7.97953 6.79004 7.56953V3.89952C6.80004 2.69952 7.66004 1.68953 8.85004 1.50953C10.93 1.18953 13.04 1.18953 15.12 1.50953C16.31 1.68953 17.17 2.69952 17.18 3.89952V9.79951C17.18 11.4395 15.85 12.7695 14.21 12.7695H9.77002C8.96002 12.7695 8.30002 13.4295 8.30002 14.2395V20.1295C8.30002 20.5895 8.63003 20.9695 9.09003 21.0395C11.02 21.3395 12.97 21.3395 14.9 21.0395C15.35 20.9695 15.69 20.5795 15.69 20.1195V16.4495C15.69 16.0395 16.03 15.6995 16.44 15.6995C16.85 15.6995 17.19 16.0395 17.19 16.4495V20.1195C17.18 21.3195 16.32 22.3295 15.13 22.5095C14.1 22.6695 13.05 22.7495 12 22.7495Z" />
<path d="M12 17.1908C11.59 17.1908 11.25 16.8508 11.25 16.4408C11.25 16.0308 11.59 15.6908 12 15.6908H20.12C20.58 15.6908 20.96 15.3608 21.03 14.9008C21.33 12.9708 21.33 11.0208 21.03 9.09079C20.96 8.63079 20.58 8.30078 20.12 8.30078H16.45C16.04 8.30078 15.7 7.96078 15.7 7.55078C15.7 7.14078 16.04 6.80078 16.45 6.80078H20.12C21.32 6.81078 22.33 7.67078 22.51 8.86078C22.83 10.9408 22.83 13.0508 22.51 15.1308C22.33 16.3208 21.32 17.1808 20.12 17.1908H12Z" />
<path d="M7.55976 17.1908H3.88978C2.68978 17.1808 1.67977 16.3208 1.49977 15.1308C1.17977 13.0508 1.17977 10.9408 1.49977 8.86078C1.67977 7.67078 2.68978 6.81078 3.88978 6.80078H11.9998C12.4098 6.80078 12.7498 7.14078 12.7498 7.55078C12.7498 7.96078 12.4098 8.30078 11.9998 8.30078H3.87977C3.41977 8.30078 3.03977 8.63079 2.96977 9.09079C2.66977 11.0208 2.66977 12.9708 2.96977 14.9008C3.03977 15.3608 3.41977 15.6908 3.87977 15.6908H7.54975C7.95975 15.6908 8.29975 16.0308 8.29975 16.4408C8.29975 16.8508 7.96976 17.1908 7.55976 17.1908Z" />
<path d="M10.33 5.58069C9.92002 5.58069 9.52002 5.19069 9.52002 4.77069C9.52002 4.35069 9.91002 3.9707 10.33 3.9707C10.52 3.9707 10.75 4.0607 10.89 4.1907C11.04 4.3307 11.14 4.57069 11.14 4.77069C11.14 5.19069 10.75 5.58069 10.33 5.58069Z" />
<path d="M13.6699 20.0302C13.2599 20.0302 12.8599 19.6402 12.8599 19.2202C12.8599 18.8002 13.2499 18.4102 13.6699 18.4102C13.8599 18.4102 14.0899 18.5002 14.2299 18.6302C14.3799 18.7702 14.4799 19.0101 14.4799 19.2101C14.4699 19.6401 14.0799 20.0302 13.6699 20.0302Z" />
</svg>

<?xml version="1.0" encoding="UTF-8"?>
<svg width="24" height="24" viewBox="0 0 24 24" xmlns="http://www.w3.org/2000/svg">
 <path d="m12 22.75c-1.05 0-2.1-0.08-3.14-0.24-1.19-0.18-2.05-1.19-2.06-2.39v-5.9c0-1.64 1.33-2.97 2.97-2.97h4.44c0.81 0 1.47-0.66 1.47-1.47v-5.89c0-0.46-0.33-0.84001-0.79-0.91001-1.93-0.3-3.88-0.3-5.81 0-0.45 0.07-0.78998 0.45999-0.78998 0.91999v3.67c0 0.41-0.34 0.75-0.75 0.75s-0.75-0.34-0.75-0.75v-3.67c0.01-1.2 0.87-2.21 2.06-2.39 2.08-0.32 4.19-0.32 6.27 0 1.19 0.18 2.05 1.19 2.06 2.39v5.9c0 1.64-1.33 2.97-2.97 2.97h-4.44c-0.81 0-1.47 0.66-1.47 1.47v5.89c0 0.46 0.33001 0.84 0.79001 0.91 1.93 0.3 3.88 0.3 5.81 0 0.45-0.07 0.79-0.46 0.79-0.92v-3.67c0-0.41 0.34-0.75 0.75-0.75s0.75 0.34 0.75 0.75v3.67c-0.01 1.2-0.87 2.21-2.06 2.39-1.03 0.16-2.08 0.24-3.13 0.24z"/>
 <path d="m12 17.191c-0.41 0-0.75-0.34-0.75-0.75s0.34-0.75 0.75-0.75h8.12c0.46 0 0.84-0.33 0.91-0.79 0.3-1.93 0.3-3.88 0-5.81-0.07-0.46-0.45-0.79001-0.91-0.79001h-3.67c-0.41 0-0.75-0.34-0.75-0.75s0.34-0.75 0.75-0.75h3.67c1.2 0.01 2.21 0.87 2.39 2.06 0.32 2.08 0.32 4.19 0 6.27-0.18 1.19-1.19 2.05-2.39 2.06h-8.12z"/>
 <path d="m7.5598 17.191h-3.67c-1.2-0.01-2.21-0.87-2.39-2.06-0.32-2.08-0.32-4.19 0-6.27 0.18-1.19 1.19-2.05 2.39-2.06h8.11c0.41 0 0.75 0.34 0.75 0.75s-0.34 0.75-0.75 0.75h-8.12c-0.46 0-0.84 0.33001-0.91 0.79001-0.3 1.93-0.3 3.88 0 5.81 0.07 0.46 0.45 0.79 0.91 0.79h3.67c0.41 0 0.75 0.34 0.75 0.75s-0.32999 0.75-0.73999 0.75z"/>
 <path d="m10.33 5.5807c-0.40998 0-0.80998-0.39-0.80998-0.81s0.39-0.79999 0.80998-0.79999c0.19 0 0.42 0.09 0.56 0.22 0.15 0.14 0.25 0.37999 0.25 0.57999 0 0.42-0.39 0.81-0.81 0.81z"/>
 <path d="m13.67 20.03c-0.41 0-0.81-0.39-0.81-0.81s0.39-0.81 0.81-0.81c0.19 0 0.42 0.09 0.56 0.22 0.15 0.14 0.25 0.3799 0.25 0.5799-0.01 0.43-0.4 0.8201-0.81 0.8201z"/>
</svg>
